X:71
T:Pant Corlan yr Wyn - The Lamb Fold Vale
M:2/4
L:1/16
Q:120
C:Trad. arr. J.T.
S:Davidsons Musical Miracles 1859
R:Processional
N:E minor arrangement
K:G
GF | E2EF G2E2 | A2FG A2F2 | G2E2 E2G2 | B2Bc BAGF | E2EF G2E2|
A2AG F2A2 | G2E2 DEFD | E2G2 E2 :||: EF | G2B2 B2 AG|
FGAB A2GF | E2G2 G2FE | DEFG F2GF | E2EF G2E2 | A2FG A2F2|
G2E2 E2G2 | B2Bc BAGF | E2EF G2E2 | A2AG F2A2 |
G2 E2 DEFD | E2G2 E2 :||
